svg/fluentui-system-icons/ic_fluent_clover_16_regular.svg

<svg width="16" height="16" viewBox="0 0 16 16" fill="none" xmlns="http://www.w3.org/2000/svg">
<path d="M14 4C14 2.34315 12.6569 1 11 1C9.34315 1 8 2.34315 8 4V6.5C8 6.77614 8.22386 7 8.5 7H11C12.6569 7 14 5.65685 14 4ZM11 2C12.1046 2 13 2.89543 13 4C13 5.10457 12.1046 6 11 6H9V4C9 2.89543 9.89543 2 11 2ZM4 1.0199C2.34315 1.0199 1 2.36304 1 4.0199C1 5.67675 2.34315 7.0199 4 7.0199H6.5C6.77614 7.0199 7 6.79604 7 6.5199V4.0199C7 2.36304 5.65685 1.0199 4 1.0199ZM2 4.0199C2 2.91533 2.89543 2.0199 4 2.0199C5.10457 2.0199 6 2.91533 6 4.0199V6.0199H4C2.89543 6.0199 2 5.12447 2 4.0199ZM4 14C2.34315 14 1 12.6569 1 11C1 9.34315 2.34315 8 4 8H6.5C6.77614 8 7 8.22386 7 8.5V11C7 12.6569 5.65685 14 4 14ZM2 11C2 12.1046 2.89543 13 4 13C5.10457 13 6 12.1046 6 11V9H4C2.89543 9 2 9.89543 2 11ZM11 14C12.6569 14 14 12.6569 14 11C14 9.34315 12.6569 8 11 8H8.5C8.22386 8 8 8.22386 8 8.5V11C8 12.6569 9.34315 14 11 14ZM13 11C13 12.1046 12.1046 13 11 13C9.89543 13 9 12.1046 9 11V9H11C12.1046 9 13 9.89543 13 11Z" fill="#212121"/>
</svg>

<svg xmlns="http://www.w3.org/2000/svg" width="16" height="16"><path d="M14 4a3 3 0 1 0-6 0v2.5a.5.5 0 0 0 .5.5H11a3 3 0 0 0 3-3Zm-3-2a2 2 0 1 1 0 4H9V4a2 2 0 0 1 2-2Zm-7-.98a3 3 0 1 0 0 6h2.5a.5.5 0 0 0 .5-.5v-2.5a3 3 0 0 0-3-3Zm-2 3a2 2 0 1 1 4 0v2H4a2 2 0 0 1-2-2ZM4 14a3 3 0 1 1 0-6h2.5a.5.5 0 0 1 .5.5V11a3 3 0 0 1-3 3Zm-2-3a2 2 0 1 0 4 0V9H4a2 2 0 0 0-2 2Zm9 3a3 3 0 1 0 0-6H8.5a.5.5 0 0 0-.5.5V11a3 3 0 0 0 3 3Zm2-3a2 2 0 1 1-4 0V9h2a2 2 0 0 1 2 2Z"/></svg>
